X:1
T:Title
%%score { ( 1 3 ) | 2 }
L:1/8
M:3/4
K:D
V:1 treble nm="Grand Piano"
V:3 treble 
V:2 bass 
V:1
 z2 z2[Q:1/4=92] [A,DF]>[A,EG] | [DFA]3 [A,EG] [A,DF]>[DFA] | [DGB]4 (3[Bd]cB | A4 (3[CE]F[A,EG] | %4
 [A,DF]4 [A,DF]>[A,EG] | [DFA]3 [A,EG] [A,DF]>[DFA] | [DGB]4 (3[Bd]cB | A4 (3cd[Ge] | %8
[M:2/4] [Fd]4 |[M:1/4] (3FGA |[M:3/4] [GB]->[DG-B-] [DGB]2 (3dcB | [FA]->[DF-A-] [DFA]2 F>[EG] | %12
 [FA]3 [GB] [FA]>[DF] | [CE]4 [DF]>[EG] | [FA]3 F [EG]>[FA] | [GB]4 (3[Bd]cB | A4 (3cd[Ge] | %17
[M:2/4] [Fd]4 |] %18
V:2
 z2 z2 D,>D, | D,3 D, D,>D, | G,4[K:treble] (3[G,D]-[G,DA][G,DG] | %3
 [A,F]4[K:bass] (3[A,,A,]-[A,,A,D]A,, | D,4 D,>D, | D,3 D, D,>D, | %6
 G,4[K:treble] (3[G,D]-[G,DA][G,DG] | [A,DF]4 (3[A,-E][A,F][K:bass][A,,A,] |[M:2/4] [D,A,]4 | %9
[M:1/4][K:treble] (3DEF |[M:3/4] G,>G, G,2 (3BAG | D,>D, D,2 [D,A,D]>[D,A,] | %12
 [D,D]3 [D,D] [D,D]>[D,A,] | [A,,A,]4 [D,A,]>[D,A,] | [D,D]3 [D,D] [D,D]>[D,D] | %15
 [G,D]4 (3[G,D]-[G,DA][G,DG] | [A,DF]4 (3[A,-E][A,F][K:bass][A,,A,] |[M:2/4] [D,A,]4 |] %18
V:3
 x6 | x6 | x6 | x6 | x6 | x6 | x6 | x6 |[M:2/4] x4 |[M:1/4] x2 |[M:3/4] D2 z2 z2 | D2 z2 z2 | x6 | %13
 x6 | x6 | x6 | x6 |[M:2/4] x4 |] %18

